azure-docs/api_textanalytics.svg

<?xml version="1.0" encoding="UTF-8"?>
<svg width="512px" height="512px" viewBox="0 0 512 512" version="1.1" xmlns="http://www.w3.org/2000/svg" xmlns:xlink="http://www.w3.org/1999/xlink">
    <!-- Generator: Sketch 46.2 (44496) - http://www.bohemiancoding.com/sketch -->
    <title>textAnalytics-wht-bluBG-512p</title>
    <desc>Created with Sketch.</desc>
    <defs></defs>
    <g id="PRODUCTION-ICONS" stroke="none" stroke-width="1" fill="none" fill-rule="evenodd">
        <g id="textAnalytics-wht-bluBG-512p">
            <g id="Text-Analytics-API">
                <rect id="Rectangle-3-Copy-14" fill="#0063B1" x="0" y="0" width="512" height="512"></rect>
                <path d="M119.466667,170.666667 L119.466667,147.911111 L386.844444,147.911111 L386.844444,170.666667 L119.466667,170.666667 Z M119.466667,233.244444 L119.466667,210.488889 L386.844444,210.488889 L386.844444,233.244444 L119.466667,233.244444 Z M159.288889,295.822222 L159.288889,273.066667 L426.666667,273.066667 L426.666667,295.822222 L159.288889,295.822222 Z M119.466667,358.4 L119.466667,335.644444 L386.844444,335.644444 L386.844444,358.4 L119.466667,358.4 Z" id="Combined-Shape" fill="#FFFFFF" fill-rule="nonzero"></path>
            </g>
        </g>
    </g>
</svg>

<svg width="512" height="512" xmlns="http://www.w3.org/2000/svg"><g fill="none" fill-rule="evenodd"><path fill="#0063B1" d="M0 0h512v512H0z"/><path d="M119.467 170.667V147.91h267.377v22.756H119.467zm0 62.577V210.49h267.377v22.755H119.467zm39.822 62.578v-22.755h267.378v22.755H159.289zM119.467 358.4v-22.756h267.377V358.4H119.467z" fill="#FFF" fill-rule="nonzero"/></g></svg>
